X:1
T:In the Twinkling of an Eye
T:William James Kirkpatrick
T:In the Twinkling of an Eye
T:Public Domain
T:Public Domain
T:Public Domain
C:William James Kirkpatrick
Z:Public Domain
%%score ( 1 2 ) ( 3 4 )
L:1/8
M:4/4
K:C
V:1 treble 
V:2 treble 
V:3 bass 
V:4 bass 
V:1
 G>G | [Ec]2 [CE]>[DF] [EG]2 [FA]2 | [EG]4 [CE]2 C2 | [CE]2 [CE]2 [B,D]2 C2 | [B,G]6 G>G | %5
w: 1.~When the|the great arch- an- gel|Its might- y|shall sound, And, the|of the age|
w: 2.~When He|the clouds de- scend- ing,|And they who|Him here, From their|shall a- wake|
w: 3.~O the|was sown in weak- ness|Shall then be|in pow’r And the|of the blood|
 [FB]2 [FB]>[FB] [FA]2 [FB]2 | [Ec]4 [EG]2 [EG]2 | [Gc]2 [Gc]2 [FB]2 [Ec]2 | [Gd]6 [Ge]>[Fd] | %9
w: ing, Shall pierce the depths|pro- found; When|the Son of Man|shall come in|
w: Him With joy and not|with fear; When|the bod- y and|the soul are|
w: lions Shall hail that bliss-|ful hour; When|we ga- ther safe-|ly home in|
 [Ec]>[Ec] [Ec]>[GB] [FA]2 [Ac]>[FA] | [EG]4 [CE]2 [CG]2 | [B,F]2 [B,F]2 [B,G]2 [B,F]2 | %12
w: His glo- ry To take the saints|on high, What|a shout- ing in|
w: u- nit- ed, And clothed no more|to die, What|a shout- ing there|
w: the morn- ing, And night’s dark sha-|dows fly, What|a shout- ing on|
 [CE]6 [CE]>[DF] | [EG]>[EG] [Ec]>[Fd] [Ge]2 [Ge]>[Fd] | [Gc]>[Gc] [Gc]>[GB] [FA]4 | %15
w: the skies from|the mul- ti- tudes that rise, Changed|in the twink- ling of|
w: will be when|each o- ther’s face we see, Changed|in the twink- ling of|
w: the shore when|we meet to part no more, Changed|in the twink- ling of|
 [EG]2 [EG]>[EG] [FB][FB][FA][FB] | [Ec]6 z2 ||"^Refrain" [EG]2 [EG]>[EG] [Ec][Ec] [Ec]>[EB] | %18
w: an eye. Changed in the twink- ling|of|an eye, Changed in the twink- ling|
w: an eye. * * * * *|||
w: an eye. * * * * *|||
 [FA]4- [FA]3 z | [^FA]2 [FA]>[FA] [Fd][Fd] [Fd]>[Fc] | [GB]4- [GB]3 G | %21
w: of *|an eye, The trum- pet shall sound,|the * dead|
w: |||
w: |||
 [Ge]2 [Ec]>[Ec] [Ge]3 [Gc] | [Fd]2 [FA]>[FA] [Fd]4 | [FG]2 [FG]>[FG] [FB][FB][FA][FB] | %24
w: be raised, Changed in the|twink- ling of an|eye. * * * * * *|
w: |||
w: |||
 EE F>F [Ec]2 |] %25
w: |
w: |
w: |
V:2
 G>G | x8 | x6 C2 | x6 C2 | x6 G>G | x8 | x8 | x8 | x8 | x8 | x8 | x8 | x8 | x8 | x8 | x8 | x8 || %17
w: trump of||tones|end|pro- claim-|||||||||||||
w: comes in||loved|graves|and praise|||||||||||||
w: seed that||raised|songs|bought mil-|||||||||||||
 x8 | x8 | x8 | x7 G | x8 | x8 | x8 | c4- x2 |] %25
w: |||shall|||||
w: ||||||||
w: ||||||||
V:3
 G,>G, | [C,G,]2 [C,G,]>[C,G,] [C,C]2 [C,C]2 | [C,C]4 [C,G,]2 [C,E,]2 | %3
w: ~ ~|~ ~ ~ ~ ~|~ ~ ~|
 [C,G,]2 [C,G,]2 [C,F,]2 [C,E,]2 | [G,,D,]6 G,>G, | [G,D]2 [G,D]>[G,D] [G,C]2 [G,D]2 | %6
w: ~ ~ ~ ~|~ ~ ~|~ ~ ~ ~ ~|
 [C,C]4 [C,C]2 [C,C]2 | [E,G,]2 [E,G,]2 [D,G,]2 (G,C) | [G,B,]6 G,>G, | %9
w: ~ ~ ~|~ ~ ~ ~ *|~ ~ ~|
 [C,G,]>[C,G,] [C,G,]>[C,C] [F,C]2 [F,C]>[F,C] | [C,C]4 [C,G,]2 [E,G,]2 | %11
w: ~ ~ ~ ~ ~ ~ ~|~ ~ ~|
 [D,G,]2 [D,G,]2 [G,,G,]2 [G,,G,]2 | [C,G,]6 [C,G,]>[C,G,] | %13
w: ~ ~ ~ ~|~ ~ ~|
 [C,C]>[C,C] [C,G,]>[C,G,] [C,C]2 [C,C]>[D,B,] | [E,C]>[E,C] [E,C]>[E,C] [F,C]4 | %15
w: ~ ~ ~ ~ ~ ~ ~|~ ~ ~ ~ ~|
 [G,C]2 [G,C]>[G,C] [G,D][G,D]G,G, | [C,G,]6 z2 || [C,C]2 z2 [C,G,]2 [C,G,]>[C,C] | %18
w: ~ ~ Changed, changed in the twink-|an|eye, Changed, changed in|
 [F,C][F,C] [F,C]>[F,C] [F,C]3 z | [D,D]2 z2 [D,A,]2 [D,A,]>[D,D] | %20
w: the twink- ling of an|eye, ~ ~ ~|
 [G,D][G,D] [G,D]>[G,D] [G,D]3 G, | C2 [C,G,]>[C,G,] C3 [E,G,] | [F,A,]2 [F,D]>[F,D] [F,A,]4 | %23
w: ~ ~ ~ ~ ~ ~|~ ~ ~ ~ in|ling of an~eye. *|
 [G,B,]2 [G,B,]>[G,B,] [G,D][G,D][G,D][G,D] | CG, A,>A, [C,G,]2 |] %25
w: ||
V:4
 G,>G, | x8 | x8 | x8 | x6 G,>G, | x8 | x8 | x6 C,2 | x6 G,>G, | x8 | x8 | x8 | x8 | x8 | x8 | %15
w: ~ ~||||~ ~|||~|~ ~|||||||
 x6 G,G, | x8 || x8 | x8 | x8 | x7 G, | C2 C3 x3 | x8 | x8 | C,4- x2 |] %25
w: ling of|||||~|the twink-||||

